svgs/regular/objects-align-left.svg

<svg xmlns="http://www.w3.org/2000/svg" viewBox="0 0 512 512"><!--! Font Awesome Pro 6.4.2 by @fontawesome - https://fontawesome.com License - https://fontawesome.com/license (Commercial License) Copyright 2023 Fonticons, Inc. --><path d="M0 24C0 10.7 10.7 0 24 0S48 10.7 48 24l0 464c0 13.3-10.7 24-24 24s-24-10.7-24-24L0 24zM176 176l288 0 0-64-288 0 0 64zm-48-64c0-26.5 21.5-48 48-48l288 0c26.5 0 48 21.5 48 48l0 64c0 26.5-21.5 48-48 48l-288 0c-26.5 0-48-21.5-48-48l0-64zm48 288l160 0 0-64-160 0 0 64zm-48-64c0-26.5 21.5-48 48-48l160 0c26.5 0 48 21.5 48 48l0 64c0 26.5-21.5 48-48 48l-160 0c-26.5 0-48-21.5-48-48l0-64z"/></svg>

<svg xmlns="http://www.w3.org/2000/svg" viewBox="0 0 512 512"><!--! Font Awesome Pro 6.1.1 by @fontawesome - https://fontawesome.com License - https://fontawesome.com/license (Commercial License) Copyright 2022 Fonticons, Inc. --><path d="M0 24C0 10.75 10.75 0 24 0C37.25 0 48 10.75 48 24V488C48 501.3 37.25 512 24 512C10.75 512 0 501.3 0 488V24zM128 112C128 85.49 149.5 64 176 64H464C490.5 64 512 85.49 512 112V176C512 202.5 490.5 224 464 224H176C149.5 224 128 202.5 128 176V112zM464 176V112H176V176H464zM128 336C128 309.5 149.5 288 176 288H336C362.5 288 384 309.5 384 336V400C384 426.5 362.5 448 336 448H176C149.5 448 128 426.5 128 400V336zM336 400V336H176V400H336z"/></svg>
